fs/sound_wave_circle_20_filled.svg

<svg viewBox="0 0 20 20" fill="none" xmlns="http://www.w3.org/2000/svg" height="1em" width="1em">
  <path d="M2 10C2 5.58172 5.58172 2 10 2C14.4183 2 18 5.58172 18 10C18 14.4183 14.4183 18 10 18C5.58172 18 2 14.4183 2 10ZM9 7.5C9 7.22386 8.77614 7 8.5 7C8.22386 7 8 7.22386 8 7.5V12.5C8 12.7761 8.22386 13 8.5 13C8.77614 13 9 12.7761 9 12.5V7.5ZM6 8C5.72386 8 5.5 8.22386 5.5 8.5V10.5C5.5 10.7761 5.72386 11 6 11C6.27614 11 6.5 10.7761 6.5 10.5V8.5C6.5 8.22386 6.27614 8 6 8ZM11 8C10.7239 8 10.5 8.22386 10.5 8.5V10.5C10.5 10.7761 10.7239 11 11 11C11.2761 11 11.5 10.7761 11.5 10.5V8.5C11.5 8.22386 11.2761 8 11 8ZM13.5 7C13.2239 7 13 7.22386 13 7.5V12.5C13 12.7761 13.2239 13 13.5 13C13.7761 13 14 12.7761 14 12.5V7.5C14 7.22386 13.7761 7 13.5 7Z" fill="#212121"/>
</svg>

<svg viewBox="0 0 20 20" fill="none" xmlns="http://www.w3.org/2000/svg" height="1em" width="1em">
  <path d="M2 10a8 8 0 1 1 16 0 8 8 0 0 1-16 0Zm7-2.5a.5.5 0 0 0-1 0v5a.5.5 0 0 0 1 0v-5ZM6 8a.5.5 0 0 0-.5.5v2a.5.5 0 0 0 1 0v-2A.5.5 0 0 0 6 8Zm5 0a.5.5 0 0 0-.5.5v2a.5.5 0 0 0 1 0v-2A.5.5 0 0 0 11 8Zm2.5-1a.5.5 0 0 0-.5.5v5a.5.5 0 0 0 1 0v-5a.5.5 0 0 0-.5-.5Z" fill="#212121"/>
</svg>
